!!!!SEGMENT: pl-cz--iii-560--001-009_raszek-waclaw--missa-in-d-pleni.krn
!!!cenid: 17xx:1055
!!!COM: Raszek, Wacław
!!!COM-rismID: pe30020314
!!!CDT: <1848->1848
!!!CNT:
!!!OPR: Missa in D
!!!OTL: Pleni
!!!OMV: 009
!!!PDT:
!!!AGN: Sacred; Mass
!!!YEC: Copyright 2022 Narodowy Instytut Fryderyka Chopina (https://polishscores.org)
!!!YEM: License CC-BY-4.0 (https://creativecommons.org/licenses/by/4.0)
!!!SMS-siglum: PL-CZ
!!!SMS-shelfmark: III-560
!!!SMS-shelfwork: 001-009 M
!!!SMS-variant:
!!!SMS-altvar:
!!!NIFC-rismSourceID: 300001046
!!!NIFC-rismChildID: 300001046
!!!NIFC-islandoraID: pl-cz:39086
!!!URL-pdf-islandora: https://repozytorium.nifc.pl/islandora/object/pl-cz%3A39086/datastream/PDF/view
!!!URL-scan: https://polish.musicsources.pl/pl/lokalizacje/galeria/rekopisy/6950/1 @EN{Scan on Polish Music Sources Website} @PL{Skany w portalu Dziedzictwo Muzyki Polskiej w otwartym dostępie}
!!!IIIF:
!!!ONB-nifc: UWAGA: części Mszy: Kyrie, Gloria, Domine Deus, Cum Sancto spiritu, Credo, Et incarnatus, Et resurrexit, Sanctus, Pleni, Benedictus, Agnus Dei, Dona nobis
!!!OMD:
!!!OMD-mod: Allegro
!!!AIN: 1 alto 1 bass 2 cor 2 oboe 1 organ 1 soprn 1 tenor 1 viola 2 violn
!!!key: D
**kern	**dynam	**kern	**dynam	**kern	**dynam	**kern	**dynam	**kern	**text	**dynam	**kern	**text	**dynam	**kern	**text	**dynam	**kern	**text	**dynam	**kern	**dynam	**kern	**dynam	**kern	**dynam	**kern	**dynam
*group5	*	*group4	*	*group4	*	*group4	*	*group3	*	*	*group3	*	*	*group3	*	*	*group3	*	*	*group2	*	*group2	*	*group1	*	*group1	*
*part12	*	*part11	*	*part10	*	*part9	*	*part8	*	*	*part7	*	*	*part6	*	*	*part5	*	*	*part4	*	*part3	*	*part2	*	*part1	*
*staff12	*	*staff11	*	*staff10	*	*staff9	*	*staff8	*	*	*staff7	*	*	*staff6	*	*	*staff5	*	*	*staff4	*	*staff3	*	*staff2	*	*staff1	*
*I"Organo.	*	*I"Alto Viola Obligat.	*	*I"Violino Secundo	*	*I"Violino Primo.	*	*I"Baſſo.	*	*	*I"Tenore.	*	*	*I"Alto.	*	*	*I"Canto.	*	*	*I"Corno 2do in D#	*	*I"Corno 1mo in D#	*	*I"Oboe Secondo	*	*I"Oboe Primo	*
*mI"Organo	*	*mI"Viola	*	*mI"Violino I	*	*mI"Violino II	*	*mI"Basso	*	*	*mI"Tenore	*	*	*mI"Alto	*	*	*mI"Soprano	*	*	*mI"Corno II in D	*	*mI"Corno I in D	*	*mI"Oboe II	*	*mI"Oboe I	*
*I'org	*	*I'vla	*	*I'vl 2	*	*I'vl 1	*	*I'B	*	*	*I'T	*	*	*I'A	*	*	*I'S	*	*	*I'cor 2 in D	*	*I'cor 1 in D	*	*I'ob 2	*	*I'ob 1	*
*	*	*	*	*mI'vl II	*	*mI'vl I	*	*	*	*	*	*	*	*	*	*	*	*	*	*mI'cor II in D	*	*mI'cor I in D	*	*mI'ob II	*	*mI'ob I	*
*Iorgan	*	*Iviola	*	*Ivioln	*	*Ivioln	*	*Ibass	*	*	*Itenor	*	*	*Ialto	*	*	*Isoprn	*	*	*Icor	*	*Icor	*	*Ioboe	*	*Ioboe	*
*ICklav	*	*ICstr	*	*ICstr	*	*ICstr	*	*ICvox	*	*	*ICvox	*	*	*ICvox	*	*	*ICvox	*	*	*ICbras	*	*ICbras	*	*ICww	*	*ICww	*
*clefF4	*	*clefC3	*	*clefG2	*	*clefG2	*	*clefF4	*	*	*clefC4	*	*	*clefC3	*	*	*clefC1	*	*	*clefG2	*	*clefG2	*	*clefG2	*	*clefG2	*
*	*	*	*	*	*	*	*	*	*	*	*mclefGv2	*	*	*mclefG2	*	*	*mclefG2	*	*	*	*	*	*	*	*	*	*
*	*	*	*	*	*	*	*	*	*	*	*	*	*	*	*	*	*	*	*	*ITrd6c10	*	*ITrd6c10	*	*	*	*	*
*k[f#c#]	*	*k[f#c#]	*	*k[f#c#]	*	*k[f#c#]	*	*k[f#c#]	*	*	*k[f#c#]	*	*	*k[f#c#]	*	*	*k[f#c#]	*	*	*k[f#c#]	*	*k[f#c#]	*	*k[f#c#]	*	*k[f#c#]	*
*D:	*	*D:	*	*D:	*	*D:	*	*D:	*	*	*D:	*	*	*D:	*	*	*D:	*	*	*D:	*	*D:	*	*D:	*	*D:	*
*M4/4	*	*M4/4	*	*M4/4	*	*M4/4	*	*M4/4	*	*	*M4/4	*	*	*M4/4	*	*	*M4/4	*	*	*M4/4	*	*M4/4	*	*M4/4	*	*M4/4	*
*met(c)	*	*met(c)	*	*met(c)	*	*met(c)	*	*met(c)	*	*	*met(c)	*	*	*met(c)	*	*	*met(c)	*	*	*met(c)	*	*met(c)	*	*met(c)	*	*met(c)	*
*all\left or middle	*	*	*	*all\middle	*	*all\left or middle	*	*all\left or middle	*	*	*all\left or middle	*	*	*all\left or middle	*	*	*all\left or middle	*	*	*all\middle	*	*all\right	*	*all\right	*	*all\left or middle	*
*2\right	*	*2\right	*	*2\right	*	*2\right	*	*2\right	*	*	*2\right	*	*	*2\right	*	*	*2\right	*	*	*2\right	*	*2\right	*	*2\right	*	*2\right	*
=1	=1	=1	=1	=1	=1	=1	=1	=1	=1	=1	=1	=1	=1	=1	=1	=1	=1	=1	=1	=1	=1	=1	=1	=1	=1	=1	=1
*	*	*	*	*tremolo	*	*	*	*	*	*	*	*	*	*	*	*	*	*	*	*	*	*	*	*	*	*	*
!	!	!	!	!	!	!	!	!	!	!LO:DY:t= :mod=%s	!	!	!	!	!	!	!	!	!	!	!LO:DY:t= :mod=%s	!	!	!LO:DY:t= :mod=%s	!	!	!
!	!	!LO:TX:t=P:problem=oznaczenie metrum z kropką	!	!LO:TX:t=P:problem=oznaczenie metrum z kropką	!	!	!	!	!	!LO:MO:mod=!LO&colon;DY&colon;ed=brack	!	!	!	!	!	!	!LO:TX:t=P:problem=znaki: w źródle cc# zamiast c#	!	!	!LO:TX:t=P:problem=oznaczenie metrum z kropką	!LO:MO:mod=!LO&colon;DY&colon;ed=brack	!LO:TX:t=P:problem=oznaczenie metrum z kropką	!	!LO:TX:t=P:problem=oznaczenie metrum z kropką	!LO:MO:mod=!LO&colon;DY&colon;ed=brack	!LO:TX:t=P:problem=oznaczenie metrum z kropką	!
!LO:TX:i:a:t=allo.:mod=	!LO:DY:a:t=forte	!	!LO:DY:a:t=for	!LO:TX:i:a:t=Allo.:mod=	!LO:DY:b:t=for	!LO:TX:i:a:t=Allegro:mod=	!LO:DY:b:t=fortiſ&colon;	!LO:TX:i:a:t=allo&colon;:mod=	!	!null	!LO:TX:i:a:t=Allo:mod=	!	!LO:DY:a:t=for	!LO:TX:i:a:t=Allo:mod=	!	!LO:DY:a:t=for&colon;	!LO:TX:i:a:t=Allo:mod=	!	!LO:DY:a:t=for	!LO:TX:i:a:t=allo:mod=	!null	!LO:TX:i:a:t=allo:mod=	!LO:DY:a:t=for&colon;	!LO:TX:i:a:t=allo.:mod=	!null	!LO:TX:i:a:t=allo:mod=	!LO:DY:a:t=for.
4d\	f	4d\	f	16f#/LL	f	8dd\L	ff	2D\	Ple-	f	2d\	Ple-	f	2a\	Ple-	f	2ff#\	Ple-	f	4d\	f	4f#\	f	1dd	f	1ff#	f
.	.	.	.	16a/	.	.	.	.	.	.	.	.	.	.	.	.	.	.	.	.	.	.	.	.	.	.	.
.	.	.	.	16f#/	.	16ee\L	.	.	.	.	.	.	.	.	.	.	.	.	.	.	.	.	.	.	.	.	.
.	.	.	.	16a/	.	16ff#\JJ	.	.	.	.	.	.	.	.	.	.	.	.	.	.	.	.	.	.	.	.	.
4A\	.	4d\	.	16f#/	.	16gg\LL	.	.	.	.	.	.	.	.	.	.	.	.	.	8d\L	.	8f#\L	.	.	.	.	.
.	.	.	.	16a/	.	16aa\	.	.	.	.	.	.	.	.	.	.	.	.	.	.	.	.	.	.	.	.	.
.	.	.	.	16f#/	.	16bb\	.	.	.	.	.	.	.	.	.	.	.	.	.	8d\J	.	8f#\J	.	.	.	.	.
.	.	.	.	16a/JJ	.	16ccc#\JJ	.	.	.	.	.	.	.	.	.	.	.	.	.	.	.	.	.	.	.	.	.
4F#\	.	4d\	.	16f#/LL	.	8ddd\L	.	4F#\	-ni	.	4d\	-ni	.	4a\	-ni	.	4ff#\	-ni	.	4d\	.	4f#\	.	.	.	.	.
.	.	.	.	16a/	.	.	.	.	.	.	.	.	.	.	.	.	.	.	.	.	.	.	.	.	.	.	.
.	.	.	.	16f#/	.	8dd\	.	.	.	.	.	.	.	.	.	.	.	.	.	.	.	.	.	.	.	.	.
.	.	.	.	16a/	.	.	.	.	.	.	.	.	.	.	.	.	.	.	.	.	.	.	.	.	.	.	.
4D\	.	8d\L	.	16f#/	.	8ff#\	.	4D\	sunt	.	4d\	sunt	.	4a\	sunt	.	4ff#\	sunt	.	4r	.	4r	.	.	.	.	.
.	.	.	.	16a/	.	.	.	.	.	.	.	.	.	.	.	.	.	.	.	.	.	.	.	.	.	.	.
.	.	8f#\J	.	16f#/	.	8aa\J	.	.	.	.	.	.	.	.	.	.	.	.	.	.	.	.	.	.	.	.	.
.	.	.	.	16a/JJ	.	.	.	.	.	.	.	.	.	.	.	.	.	.	.	.	.	.	.	.	.	.	.
=2	=2	=2	=2	=2	=2	=2	=2	=2	=2	=2	=2	=2	=2	=2	=2	=2	=2	=2	=2	=2	=2	=2	=2	=2	=2	=2	=2
!	!	!	!	!	!	!	!	!	!LO:MO:mod=cae-	!	!	!LO:MO:mod=cae-	!	!	!LO:MO:mod=cae-	!	!	!LO:MO:mod=cae-	!	!	!	!	!	!	!	!	!
8AA/L	.	8A/L	.	16e/LL	.	4gg 4a\	.	2A\	Cae-	.	2c#\	Cae-	.	2a\	Cae-	.	2ee\	Cae-	.	4A/	.	4e\	.	1ee	.	1gg	.
.	.	.	.	16a/	.	.	.	.	.	.	.	.	.	.	.	.	.	.	.	.	.	.	.	.	.	.	.
16BB/L	.	16B/L	.	16e/	.	.	.	.	.	.	.	.	.	.	.	.	.	.	.	.	.	.	.	.	.	.	.
16C#/JJ	.	16c#/JJ	.	16a/	.	.	.	.	.	.	.	.	.	.	.	.	.	.	.	.	.	.	.	.	.	.	.
!	!	!	!	!	!	!	!	!	!	!	!	!	!	!	!	!	!	!	!	!	!	!LO:TX:a:t=d:mod=	!	!	!	!	!
16D\LL	.	16d\LL	.	16e/	.	4gg 4a\	.	.	.	.	.	.	.	.	.	.	.	.	.	8A/L	.	8e\L	.	.	.	.	.
16E\	.	16e\	.	16a/	.	.	.	.	.	.	.	.	.	.	.	.	.	.	.	.	.	.	.	.	.	.	.
16F#\	.	16f#\	.	16e/	.	.	.	.	.	.	.	.	.	.	.	.	.	.	.	8A/J	.	8e\J	.	.	.	.	.
16G\JJ	.	16g\JJ	.	16a/JJ	.	.	.	.	.	.	.	.	.	.	.	.	.	.	.	.	.	.	.	.	.	.	.
8A\L	.	8a\L	.	16e/LL	.	4gg 4a\	.	4A\	-li	.	4c#\	-li	.	4a\	-li	.	4ee\	-li	.	4A/	.	4e\	.	.	.	.	.
.	.	.	.	16a/	.	.	.	.	.	.	.	.	.	.	.	.	.	.	.	.	.	.	.	.	.	.	.
8E\	.	8e\	.	16e/	.	.	.	.	.	.	.	.	.	.	.	.	.	.	.	.	.	.	.	.	.	.	.
.	.	.	.	16a/	.	.	.	.	.	.	.	.	.	.	.	.	.	.	.	.	.	.	.	.	.	.	.
8C#\	.	8c#\	.	16e/	.	4r	.	4A\	et	.	4c#\	et	.	4a\	et	.	4ee\	et	.	4A/	.	4e\	.	.	.	.	.
.	.	.	.	16a/	.	.	.	.	.	.	.	.	.	.	.	.	.	.	.	.	.	.	.	.	.	.	.
8E\J	.	8e\J	.	16e/	.	.	.	.	.	.	.	.	.	.	.	.	.	.	.	.	.	.	.	.	.	.	.
.	.	.	.	16a/JJ	.	.	.	.	.	.	.	.	.	.	.	.	.	.	.	.	.	.	.	.	.	.	.
=3	=3	=3	=3	=3	=3	=3	=3	=3	=3	=3	=3	=3	=3	=3	=3	=3	=3	=3	=3	=3	=3	=3	=3	=3	=3	=3	=3
4AA/	.	4c#\	.	16e/LL	.	8a\L	.	2A\	ter-	.	2c#\	ter-	.	2a\	ter-	.	2ee\	ter-	.	4A/	.	4e\	.	1ee	.	1gg	.
.	.	.	.	16a/	.	.	.	.	.	.	.	.	.	.	.	.	.	.	.	.	.	.	.	.	.	.	.
.	.	.	.	16e/	.	16b\L	.	.	.	.	.	.	.	.	.	.	.	.	.	.	.	.	.	.	.	.	.
.	.	.	.	16a/	.	16cc#\JJ	.	.	.	.	.	.	.	.	.	.	.	.	.	.	.	.	.	.	.	.	.
!	!	!	!	!	!	!LO:LB:g=original	!	!	!	!	!	!	!	!	!	!	!	!	!	!	!	!	!	!	!	!	!
4A\	.	4c#\	.	16e/	.	16dd\LL	.	.	.	.	.	.	.	.	.	.	.	.	.	8A/L	.	8e\L	.	.	.	.	.
.	.	.	.	16a/	.	16ee\	.	.	.	.	.	.	.	.	.	.	.	.	.	.	.	.	.	.	.	.	.
.	.	.	.	16e/	.	16ff#\	.	.	.	.	.	.	.	.	.	.	.	.	.	8A/J	.	8e\J	.	.	.	.	.
.	.	.	.	16a/JJ	.	16gg#X\JJ	.	.	.	.	.	.	.	.	.	.	.	.	.	.	.	.	.	.	.	.	.
4AA/	.	4c#\	.	16e/LL	.	8aa\L	.	2A\	-ra	.	2c#\	-ra	.	2a\	-ra	.	2ee\	-ra	.	4A/	.	4e\	.	.	.	.	.
.	.	.	.	16a/	.	.	.	.	.	.	.	.	.	.	.	.	.	.	.	.	.	.	.	.	.	.	.
.	.	.	.	16e/	.	8a\	.	.	.	.	.	.	.	.	.	.	.	.	.	.	.	.	.	.	.	.	.
.	.	.	.	16a/	.	.	.	.	.	.	.	.	.	.	.	.	.	.	.	.	.	.	.	.	.	.	.
!	!	!	!	!	!	!	!	!	!	!	!	!	!	!	!	!	!	!	!	!	!	!LO:TX:t=P:problem=niepełna miara taktu	!	!	!	!	!
!	!	!	!	!	!	!	!	!	!	!	!	!	!	!	!	!	!	!	!	!	!	!LO:MO:mod=4r	!	!	!	!	!
4r	.	8c#\L	.	16e/	.	8ee\	.	.	.	.	.	.	.	.	.	.	.	.	.	4r	.	4r\yy	.	.	.	.	.
.	.	.	.	16a/	.	.	.	.	.	.	.	.	.	.	.	.	.	.	.	.	.	.	.	.	.	.	.
.	.	8e\J	.	16e/	.	8ggn\J	.	.	.	.	.	.	.	.	.	.	.	.	.	.	.	.	.	.	.	.	.
.	.	.	.	16a/JJ	.	.	.	.	.	.	.	.	.	.	.	.	.	.	.	.	.	.	.	.	.	.	.
=4	=4	=4	=4	=4	=4	=4	=4	=4	=4	=4	=4	=4	=4	=4	=4	=4	=4	=4	=4	=4	=4	=4	=4	=4	=4	=4	=4
8D\L	.	8d\L	.	16f#/LL	.	4ff# 4a 4d\	.	2d\	glo-	.	2d\	glo-	.	2a\	glo-	.	2ff#\	glo-	.	4d\	.	4f#\	.	1dd	.	1ff#	.
.	.	.	.	16a/	.	.	.	.	.	.	.	.	.	.	.	.	.	.	.	.	.	.	.	.	.	.	.
16E\L	.	16e\L	.	16f#/	.	.	.	.	.	.	.	.	.	.	.	.	.	.	.	.	.	.	.	.	.	.	.
16F#\JJ	.	16f#\JJ	.	16a/	.	.	.	.	.	.	.	.	.	.	.	.	.	.	.	.	.	.	.	.	.	.	.
16G\LL	.	16g\LL	.	16f#/	.	4ff# 4a 4d\	.	.	.	.	.	.	.	.	.	.	.	.	.	8d\L	.	8f#\L	.	.	.	.	.
16A\	.	16a\	.	16a/	.	.	.	.	.	.	.	.	.	.	.	.	.	.	.	.	.	.	.	.	.	.	.
16B\	.	16b\	.	16f#/	.	.	.	.	.	.	.	.	.	.	.	.	.	.	.	8d\J	.	8f#\J	.	.	.	.	.
16c#\JJ	.	16cc#\JJ	.	16a/JJ	.	.	.	.	.	.	.	.	.	.	.	.	.	.	.	.	.	.	.	.	.	.	.
8d\L	.	8dd\L	.	16f#/LL	.	4ff# 4a 4d\	.	4d\	-ri-	.	4d\	-ri-	.	4a\	-ri-	.	4ff#\	-ri-	.	4d\	.	4f#\	.	.	.	.	.
.	.	.	.	16a/	.	.	.	.	.	.	.	.	.	.	.	.	.	.	.	.	.	.	.	.	.	.	.
8A\	.	8a\	.	16f#/	.	.	.	.	.	.	.	.	.	.	.	.	.	.	.	.	.	.	.	.	.	.	.
.	.	.	.	16a/	.	.	.	.	.	.	.	.	.	.	.	.	.	.	.	.	.	.	.	.	.	.	.
!	!	!	!	!	!	!	!	!	!LO:MO:mod=-a,	!	!	!LO:MO:mod=-a,	!	!	!LO:MO:mod=-a,	!	!	!LO:MO:mod=-a,	!	!	!	!	!	!	!	!	!
8F#\	.	8f#\	.	16f#/	.	4r	.	4d\	-a	.	4d\	-a	.	4a\	-a	.	4ff#\	-a	.	4r	.	4r	.	.	.	.	.
.	.	.	.	16a/	.	.	.	.	.	.	.	.	.	.	.	.	.	.	.	.	.	.	.	.	.	.	.
8A\J	.	8a\J	.	16f#/	.	.	.	.	.	.	.	.	.	.	.	.	.	.	.	.	.	.	.	.	.	.	.
.	.	.	.	16a/JJ	.	.	.	.	.	.	.	.	.	.	.	.	.	.	.	.	.	.	.	.	.	.	.
=5	=5	=5	=5	=5	=5	=5	=5	=5	=5	=5	=5	=5	=5	=5	=5	=5	=5	=5	=5	=5	=5	=5	=5	=5	=5	=5	=5
*	*	*	*	*	*	*tremolo	*	*	*	*	*	*	*	*	*ij	*	*	*	*	*	*	*	*	*	*	*	*
!	!	!	!	!	!	!	!	!	!	!	!	!	!	!	!	!	!	!	!	!LO:TX:a:t=8.:mod=	!	!LO:TX:a:t=8:mod=	!	!	!	!	!
8d\L	.	8d\L	.	16a/LL	.	16ff#\LL	.	(4d\	glo-	.	(4d\	glo-	.	2a\	glo-	.	(4ff#\	glo-	.	00r	.	00r	.	1a	.	4ff#\	.
.	.	.	.	16a/	.	16ff#\	.	.	.	.	.	.	.	.	.	.	.	.	.	.	.	.	.	.	.	.	.
8d\	.	8d\	.	16a/	.	16ff#\	.	.	.	.	.	.	.	.	.	.	.	.	.	.	.	.	.	.	.	.	.
.	.	.	.	16a/	.	16ff#\JJ	.	.	.	.	.	.	.	.	.	.	.	.	.	.	.	.	.	.	.	.	.
8c#\	.	8e\	.	16a/	.	16gg\LL	.	4c#\)	.	.	4e\)	.	.	.	.	.	4gg\)	.	.	.	.	.	.	.	.	4gg\	.
.	.	.	.	16a/	.	16gg\	.	.	.	.	.	.	.	.	.	.	.	.	.	.	.	.	.	.	.	.	.
8c#\J	.	8e\J	.	16a/	.	16gg\	.	.	.	.	.	.	.	.	.	.	.	.	.	.	.	.	.	.	.	.	.
.	.	.	.	16a/JJ	.	16gg\JJ	.	.	.	.	.	.	.	.	.	.	.	.	.	.	.	.	.	.	.	.	.
8d\L	.	8d\L	.	16a/LL	.	16ff#\LL	.	4d\	-ri-	.	4d\	-ri-	.	4a\	-ri-	.	4ff#\	-ri-	.	.	.	.	.	.	.	4ff#\	.
.	.	.	.	16a/	.	16ff#\	.	.	.	.	.	.	.	.	.	.	.	.	.	.	.	.	.	.	.	.	.
8d\	.	8d\	.	16a/	.	16ff#\	.	.	.	.	.	.	.	.	.	.	.	.	.	.	.	.	.	.	.	.	.
.	.	.	.	16a/	.	16ff#\JJ	.	.	.	.	.	.	.	.	.	.	.	.	.	.	.	.	.	.	.	.	.
8c#\	.	8c#\	.	16a/	.	16ee\LL	.	4c#\	-a	.	4c#\	-a	.	4a\	-a	.	4ee\	-a	.	.	.	.	.	.	.	4ee\	.
*	*	*	*	*	*	*	*	*	*	*	*	*	*	*	*Xij	*	*	*	*	*	*	*	*	*	*	*	*
.	.	.	.	16a/	.	16ee\	.	.	.	.	.	.	.	.	.	.	.	.	.	.	.	.	.	.	.	.	.
8c#\J	.	8c#\J	.	16a/	.	16ee\	.	.	.	.	.	.	.	.	.	.	.	.	.	.	.	.	.	.	.	.	.
.	.	.	.	16a/JJ	.	16ee\JJ	.	.	.	.	.	.	.	.	.	.	.	.	.	.	.	.	.	.	.	.	.
!LO:LB:g=original	!	!	!	!	!	!	!	!	!	!	!	!	!	!	!	!	!LO:LB:g=original	!	!	!	!	!	!	!	!	!	!
=6	=6	=6	=6	=6	=6	=6	=6	=6	=6	=6	=6	=6	=6	=6	=6	=6	=6	=6	=6	=6	=6	=6	=6	=6	=6	=6	=6
!	!	!	!	!	!	!	!	!	!	!	!	!	!	!	!	!	!LO:SIC:v:s=(4dd#\	!	!	!	!	!	!	!	!	!	!
8B\L	.	8B\L	.	16a/LL	.	16dd#X\LL	.	(4B\	tu-	.	(4B\	tu-	.	2a\	tu-	.	(4dd\	tu-	.	.	.	.	.	2a/	.	4dd#X\	.
.	.	.	.	16a/	.	16dd#X\	.	.	.	.	.	.	.	.	.	.	.	.	.	.	.	.	.	.	.	.	.
8B\	.	8B\J	.	16a/	.	16dd#X\	.	.	.	.	.	.	.	.	.	.	.	.	.	.	.	.	.	.	.	.	.
.	.	.	.	16a/	.	16dd#X\JJ	.	.	.	.	.	.	.	.	.	.	.	.	.	.	.	.	.	.	.	.	.
!	!	!LO:LB:g=original	!	!	!	!	!	!	!	!	!	!	!	!	!	!	!	!	!	!	!	!	!	!	!	!	!
8c#\	.	8c#\L	.	16a/	.	16ee\LL	.	4c#\)	.	.	4A\)	.	.	.	.	.	4ee\)	.	.	.	.	.	.	.	.	4ee\	.
*	*	*	*	*	*	*Xtremolo	*	*	*	*	*	*	*	*	*	*	*	*	*	*	*	*	*	*	*	*	*
.	.	.	.	16a/	.	16ee\	.	.	.	.	.	.	.	.	.	.	.	.	.	.	.	.	.	.	.	.	.
8c#\J	.	8c#\J	.	16a/	.	16ee\	.	.	.	.	.	.	.	.	.	.	.	.	.	.	.	.	.	.	.	.	.
.	.	.	.	16a/JJ	.	16ee\JJ	.	.	.	.	.	.	.	.	.	.	.	.	.	.	.	.	.	.	.	.	.
!	!	!	!	!	!	!	!	!	!LO:MO:mod=-a,	!	!	!LO:MO:mod=-a,	!	!	!LO:MO:mod=-a,	!	!	!LO:MO:mod=-a,	!	!	!	!	!	!	!	!	!
8d#X\L	.	8d#X\L	.	16a/LL	.	8ff#\L	.	4d#X\	-a	.	4B\	-a	.	4a\	-a	.	4ff#\	-a	.	.	.	.	.	4a/	.	4ff#\	.
.	.	.	.	16a/	.	.	.	.	.	.	.	.	.	.	.	.	.	.	.	.	.	.	.	.	.	.	.
8B\	.	8B\	.	16a/	.	8dd#\	.	.	.	.	.	.	.	.	.	.	.	.	.	.	.	.	.	.	.	.	.
.	.	.	.	16a/	.	.	.	.	.	.	.	.	.	.	.	.	.	.	.	.	.	.	.	.	.	.	.
8c#\	.	8c#\	.	16a/	.	8ee\	.	4r	.	.	4r	.	.	4r	.	.	4r	.	.	.	.	.	.	4r	.	4r	.
.	.	.	.	16a/	.	.	.	.	.	.	.	.	.	.	.	.	.	.	.	.	.	.	.	.	.	.	.
8d#\J	.	8d#\J	.	16a/	.	8ff#\J	.	.	.	.	.	.	.	.	.	.	.	.	.	.	.	.	.	.	.	.	.
.	.	.	.	16a/JJ	.	.	.	.	.	.	.	.	.	.	.	.	.	.	.	.	.	.	.	.	.	.	.
!	!	!	!	!LO:LB:g=original	!	!LO:LB:g=original	!	!LO:LB:g=original	!	!	!	!	!	!LO:LB:g=original	!	!	!	!	!	!	!	!	!	!	!	!	!
=7	=7	=7	=7	=7	=7	=7	=7	=7	=7	=7	=7	=7	=7	=7	=7	=7	=7	=7	=7	=7	=7	=7	=7	=7	=7	=7	=7
*	*	*	*	*	*	*tremolo	*	*	*	*	*	*	*	*	*	*	*	*	*	*	*	*	*	*	*	*	*
!	!	!	!	!	!	!	!	!	!	!	!	!	!	!	!	!	!	!	!	!	!	!	!	!LO:SIC:v:s=2b\	!	!	!
8e\L	.	8e\L	.	16b\LL	.	16gg\LL	.	(4E\	glo-	.	2B\	glo-	.	2b\	glo-	.	(4gg\	glo-	.	.	.	.	.	2cc#\	.	4gg\	.
.	.	.	.	16b\	.	16gg\	.	.	.	.	.	.	.	.	.	.	.	.	.	.	.	.	.	.	.	.	.
8e\	.	8e\	.	16b\	.	16gg\	.	.	.	.	.	.	.	.	.	.	.	.	.	.	.	.	.	.	.	.	.
.	.	.	.	16b\	.	16gg\JJ	.	.	.	.	.	.	.	.	.	.	.	.	.	.	.	.	.	.	.	.	.
8d#X\	.	8f#\	.	16b\	.	16aa\LL	.	4D#X\)	.	.	.	.	.	.	.	.	4aa\)	.	.	.	.	.	.	.	.	4aa\	.
.	.	.	.	16b\	.	16aa\	.	.	.	.	.	.	.	.	.	.	.	.	.	.	.	.	.	.	.	.	.
8d#\J	.	8f#\J	.	16b\	.	16aa\	.	.	.	.	.	.	.	.	.	.	.	.	.	.	.	.	.	.	.	.	.
.	.	.	.	16b\JJ	.	16aa\JJ	.	.	.	.	.	.	.	.	.	.	.	.	.	.	.	.	.	.	.	.	.
8e\L	.	8e\L	.	16b\LL	.	16gg\LL	.	4E\	-ri-	.	4B\	-ri-	.	4b\	-ri-	.	4gg\	-ri-	.	.	.	.	.	2b\	.	4gg\	.
.	.	.	.	16b\	.	16gg\	.	.	.	.	.	.	.	.	.	.	.	.	.	.	.	.	.	.	.	.	.
8e\	.	8e\	.	16b\	.	16gg\	.	.	.	.	.	.	.	.	.	.	.	.	.	.	.	.	.	.	.	.	.
.	.	.	.	16b\	.	16gg\JJ	.	.	.	.	.	.	.	.	.	.	.	.	.	.	.	.	.	.	.	.	.
8dn\	.	8d\	.	16b\	.	16ff#\LL	.	4Dn\	-a	.	4B\	-a	.	4b\	-a	.	4ff#\	-a	.	.	.	.	.	.	.	4ff#\	.
.	.	.	.	16b\	.	16ff#\	.	.	.	.	.	.	.	.	.	.	.	.	.	.	.	.	.	.	.	.	.
8d\J	.	8d\J	.	16b\	.	16ff#\	.	.	.	.	.	.	.	.	.	.	.	.	.	.	.	.	.	.	.	.	.
.	.	.	.	16b\JJ	.	16ff#\JJ	.	.	.	.	.	.	.	.	.	.	.	.	.	.	.	.	.	.	.	.	.
!	!	!	!	!	!	!	!	!	!	!	!	!	!	!	!	!	!	!	!	!	!	!	!	!LO:LB:g=original	!	!	!
=8	=8	=8	=8	=8	=8	=8	=8	=8	=8	=8	=8	=8	=8	=8	=8	=8	=8	=8	=8	=8	=8	=8	=8	=8	=8	=8	=8
8c#\L	.	8c#\L	.	16b\LL	.	16ee#X\LL	.	(4C#/	tu-	.	2B\	tu-	.	2b\	tu-	.	(4ee#X\	tu-	.	.	.	.	.	2b\	.	4ee#X\	.
.	.	.	.	16b\	.	16ee#X\	.	.	.	.	.	.	.	.	.	.	.	.	.	.	.	.	.	.	.	.	.
8c#\	.	8c#\	.	16b\	.	16ee#X\	.	.	.	.	.	.	.	.	.	.	.	.	.	.	.	.	.	.	.	.	.
.	.	.	.	16b\	.	16ee#X\JJ	.	.	.	.	.	.	.	.	.	.	.	.	.	.	.	.	.	.	.	.	.
8d\	.	8f#\	.	16b\	.	16ff#\LL	.	4D/)	.	.	.	.	.	.	.	.	4ff#\)	.	.	.	.	.	.	.	.	4ff#\	.
.	.	.	.	16b\	.	16ff#\	.	.	.	.	.	.	.	.	.	.	.	.	.	.	.	.	.	.	.	.	.
8d\J	.	8f#\J	.	16b\	.	16ff#\	.	.	.	.	.	.	.	.	.	.	.	.	.	.	.	.	.	.	.	.	.
.	.	.	.	16b\JJ	.	16ff#\JJ	.	.	.	.	.	.	.	.	.	.	.	.	.	.	.	.	.	.	.	.	.
*	*	*	*	*Xtremolo	*	*Xtremolo	*	*	*	*	*	*	*	*	*	*	*	*	*	*	*	*	*	*	*	*	*
!	!	!	!	!	!	!	!	!	!LO:MO:mod=-a,	!	!	!LO:MO:mod=-a,	!	!	!LO:MO:mod=-a,	!	!	!LO:MO:mod=-a,	!	!	!	!	!	!	!	!	!
8c#\L	.	4g#X\	.	4b\	.	8ee#\L	.	4C#/	-a	.	4G#X/	-a	.	4b\	-a	.	4ee#\	-a	.	.	.	.	.	4b\	.	4ee#\	.
!	!	!	!	!	!	!	!LO:DY:b:t=pia	!	!	!	!	!	!	!	!	!	!	!	!	!	!	!	!	!	!	!	!
8c#\J	.	.	.	.	.	8cc#\	p	.	.	.	.	.	.	.	.	.	.	.	.	.	.	.	.	.	.	.	.
4r	.	4r	.	4r	.	8cc#\	.	4r	.	.	4r	.	.	4r	.	.	4r	.	.	.	.	.	.	4r	.	4r	.
.	.	.	.	.	.	8cc#\J	.	.	.	.	.	.	.	.	.	.	.	.	.	.	.	.	.	.	.	.	.
!	!	!	!	!	!	!	!	!	!	!	!LO:LB:g=original	!	!	!	!	!	!	!	!	!	!	!	!	!	!	!	!
=9	=9	=9	=9	=9	=9	=9	=9	=9	=9	=9	=9	=9	=9	=9	=9	=9	=9	=9	=9	=9	=9	=9	=9	=9	=9	=9	=9
!	!	!	!	!	!	!	!	!	!	!	!	!	!	!	!	!	!	!	!	!	!	!	!	!	!LO:DY:t= :mod=%s	!	!
!	!	!	!	!	!	!	!	!	!	!	!	!	!	!	!	!	!	!	!	!	!	!	!	!	!LO:MO:mod=!LO&colon;DY&colon;ed=brack	!	!
!	!LO:DY:a:t=pp&colon;	!	!LO:DY:a:t=p&colon;	!	!LO:DY:a:t=p&colon;	!	!	!	!	!	!LO:TX:a:t=4:mod=	!	!	!	!	!	!	!	!	!	!	!	!	!	!null	!	!LO:DY:b:t=p.
4E#X\	pp	2G#X/	p	8c#/	p	8r	.	00r	.	.	00r	.	.	00r	.	.	00r	.	.	00r	.	00r	.	1cc#	p	1cc#	p
.	.	.	.	4c#/	.	8cc#|\L	.	.	.	.	.	.	.	.	.	.	.	.	.	.	.	.	.	.	.	.	.
4r	.	.	.	.	.	(8gg#X\	.	.	.	.	.	.	.	.	.	.	.	.	.	.	.	.	.	.	.	.	.
.	.	.	.	4c#/	.	8bb\J)	.	.	.	.	.	.	.	.	.	.	.	.	.	.	.	.	.	.	.	.	.
4F#\	.	2A/	.	.	.	8r	.	.	.	.	.	.	.	.	.	.	.	.	.	.	.	.	.	.	.	.	.
.	.	.	.	4c#/	.	8aa|\L	.	.	.	.	.	.	.	.	.	.	.	.	.	.	.	.	.	.	.	.	.
4r	.	.	.	.	.	(8gg#\	.	.	.	.	.	.	.	.	.	.	.	.	.	.	.	.	.	.	.	.	.
.	.	.	.	8c#/	.	8ff#\J)	.	.	.	.	.	.	.	.	.	.	.	.	.	.	.	.	.	.	.	.	.
!	!	!	!	!	!	!	!	!	!	!	!	!	!	!	!	!	!	!	!	!	!	!	!	!	!	!LO:LB:g=original	!
=10	=10	=10	=10	=10	=10	=10	=10	=10	=10	=10	=10	=10	=10	=10	=10	=10	=10	=10	=10	=10	=10	=10	=10	=10	=10	=10	=10
4G#X\	.	2B/	.	8c#/	.	8r	.	.	.	.	.	.	.	.	.	.	.	.	.	.	.	.	.	1cc#	.	1cc#	.
.	.	.	.	4c#/	.	8ee#X\L	.	.	.	.	.	.	.	.	.	.	.	.	.	.	.	.	.	.	.	.	.
8r	.	.	.	.	.	8ff#\	.	.	.	.	.	.	.	.	.	.	.	.	.	.	.	.	.	.	.	.	.
!	!	!	!	!	!	!LO:SIC:v:s=8gg#\J	!	!	!	!	!	!	!	!	!	!	!	!	!	!	!	!	!	!	!	!	!
8r	.	.	.	4c#/	.	8gg\J	.	.	.	.	.	.	.	.	.	.	.	.	.	.	.	.	.	.	.	.	.
4A\	.	2c#/	.	.	.	8r	.	.	.	.	.	.	.	.	.	.	.	.	.	.	.	.	.	.	.	.	.
.	.	.	.	4c#/	.	8ff#\L	.	.	.	.	.	.	.	.	.	.	.	.	.	.	.	.	.	.	.	.	.
4r	.	.	.	.	.	8aa\	.	.	.	.	.	.	.	.	.	.	.	.	.	.	.	.	.	.	.	.	.
.	.	.	.	8c#/	.	8ff#\J	.	.	.	.	.	.	.	.	.	.	.	.	.	.	.	.	.	.	.	.	.
!	!	!	!	!	!	!LO:LB:g=original	!	!	!	!	!	!	!	!	!	!	!	!	!	!	!	!	!	!	!	!	!
=11	=11	=11	=11	=11	=11	=11	=11	=11	=11	=11	=11	=11	=11	=11	=11	=11	=11	=11	=11	=11	=11	=11	=11	=11	=11	=11	=11
4D#X\	.	2F#/	.	8B/	.	8r	.	.	.	.	.	.	.	.	.	.	.	.	.	.	.	.	.	1b	.	1b	.
.	.	.	.	4B/	.	8b\L	.	.	.	.	.	.	.	.	.	.	.	.	.	.	.	.	.	.	.	.	.
4r	.	.	.	.	.	8ff#\	.	.	.	.	.	.	.	.	.	.	.	.	.	.	.	.	.	.	.	.	.
.	.	.	.	4B/	.	8aa\J	.	.	.	.	.	.	.	.	.	.	.	.	.	.	.	.	.	.	.	.	.
!LO:SIC:s=4E\	!	!LO:SIC:v:s=2G#/	!	!	!	!	!	!	!	!	!	!	!	!	!	!	!	!	!	!	!	!	!	!	!	!	!
4En\	.	2G/	.	.	.	8r	.	.	.	.	.	.	.	.	.	.	.	.	.	.	.	.	.	.	.	.	.
.	.	.	.	4B/	.	8gg#X\L	.	.	.	.	.	.	.	.	.	.	.	.	.	.	.	.	.	.	.	.	.
4r	.	.	.	.	.	8ff#\	.	.	.	.	.	.	.	.	.	.	.	.	.	.	.	.	.	.	.	.	.
.	.	.	.	8B/	.	8ee\J	.	.	.	.	.	.	.	.	.	.	.	.	.	.	.	.	.	.	.	.	.
=12	=12	=12	=12	=12	=12	=12	=12	=12	=12	=12	=12	=12	=12	=12	=12	=12	=12	=12	=12	=12	=12	=12	=12	=12	=12	=12	=12
4F#\	.	2A/	.	8B/	.	8r	.	.	.	.	.	.	.	.	.	.	.	.	.	.	.	.	.	1b	.	1b	.
.	.	.	.	4B/	.	8dd#X\L	.	.	.	.	.	.	.	.	.	.	.	.	.	.	.	.	.	.	.	.	.
4r	.	.	.	.	.	8ee\	.	.	.	.	.	.	.	.	.	.	.	.	.	.	.	.	.	.	.	.	.
.	.	.	.	4B/	.	8ff#\J	.	.	.	.	.	.	.	.	.	.	.	.	.	.	.	.	.	.	.	.	.
4G#X\	.	2B/	.	.	.	8r	.	.	.	.	.	.	.	.	.	.	.	.	.	.	.	.	.	.	.	.	.
.	.	.	.	4B/	.	8ee\L	.	.	.	.	.	.	.	.	.	.	.	.	.	.	.	.	.	.	.	.	.
4r	.	.	.	.	.	8dd#\	.	.	.	.	.	.	.	.	.	.	.	.	.	.	.	.	.	.	.	.	.
.	.	.	.	8B/	.	8ee\J	.	.	.	.	.	.	.	.	.	.	.	.	.	.	.	.	.	.	.	.	.
!LO:LB:g=original	!	!	!	!	!	!	!	!	!	!	!	!	!	!	!	!	!	!	!	!	!	!	!	!	!	!	!
=13	=13	=13	=13	=13	=13	=13	=13	=13	=13	=13	=13	=13	=13	=13	=13	=13	=13	=13	=13	=13	=13	=13	=13	=13	=13	=13	=13
*	*	*tremolo	*	*tremolo	*	*	*	*	*	*	*	*	*	*	*	*	*	*	*	*	*	*	*	*	*	*	*
!	!LO:DY:a:t=forte	!LO:SIC:v:s=8g#\L	!	!	!	!LO:SIC:s=16dd\LL	!	!	!	!	!	!	!	!	!	!	!	!	!	!	!LO:DY:a:t=for&colon;	!	!LO:DY:a:t=for&colon;	!	!LO:DY:a:t=for	!	!LO:DY:b:t=for.
8G#X\L	f	8g\L	.	16e/LL	.	16ddn\LL	.	2G#X\	glo-	.	2B\	glo-	.	2e\	glo-	.	2dd\	glo-	.	2e\	f	2e\	f	2dd\	f	2ee\	f
.	.	.	.	16b/	.	16ee\	.	.	.	.	.	.	.	.	.	.	.	.	.	.	.	.	.	.	.	.	.
!	!	!LO:SIC:v:s=8g#\	!	!	!	!	!	!	!	!	!	!	!	!	!	!	!	!	!	!	!	!	!	!	!	!	!
8B\	.	8g\	.	16e/	.	16dd\	.	.	.	.	.	.	.	.	.	.	.	.	.	.	.	.	.	.	.	.	.
.	.	.	.	16b/	.	16ee\JJ	.	.	.	.	.	.	.	.	.	.	.	.	.	.	.	.	.	.	.	.	.
!	!	!LO:SIC:v:s=8g#\	!	!	!	!	!	!	!	!	!	!	!	!	!	!	!	!	!	!	!	!	!	!	!	!	!
8E\	.	8g\	.	16e/	.	16dd\LL	.	.	.	.	.	.	.	.	.	.	.	.	.	.	.	.	.	.	.	.	.
.	.	.	.	16b/	.	16ee\	.	.	.	.	.	.	.	.	.	.	.	.	.	.	.	.	.	.	.	.	.
!	!	!LO:SIC:v:s=8g#\J	!	!	!	!	!	!	!	!	!	!	!	!	!	!	!	!	!	!	!	!	!	!	!	!	!
8G#\J	.	8g\J	.	16e/	.	16dd\	.	.	.	.	.	.	.	.	.	.	.	.	.	.	.	.	.	.	.	.	.
.	.	.	.	16b/JJ	.	16ee\JJ	.	.	.	.	.	.	.	.	.	.	.	.	.	.	.	.	.	.	.	.	.
*	*	*	*	*	*	*tremolo	*	*	*	*	*	*	*	*	*	*	*	*	*	*	*	*	*	*	*	*	*
8A\L	.	8a\L	.	16e/LL	.	16cc#\LL	.	4A\	-ri-	.	4A\	-ri-	.	4e\	-ri-	.	4cc#\	-ri-	.	4A/	.	4e\	.	4cc#\	.	4ee\	.
.	.	.	.	16cc#/	.	16ee\	.	.	.	.	.	.	.	.	.	.	.	.	.	.	.	.	.	.	.	.	.
8c#\	.	8a\	.	16e/	.	16cc#\	.	.	.	.	.	.	.	.	.	.	.	.	.	.	.	.	.	.	.	.	.
.	.	.	.	16cc#/	.	16ee\	.	.	.	.	.	.	.	.	.	.	.	.	.	.	.	.	.	.	.	.	.
!	!	!	!	!	!	!	!	!	!LO:MO:mod=-a,	!	!	!LO:MO:mod=-a,	!	!	!LO:MO:mod=-a,	!	!	!LO:MO:mod=-a,	!	!	!	!	!	!	!	!	!
8E\	.	8a\	.	16e/	.	16cc#\	.	4A\	-a	.	4A\	-a	.	4e\	-a	.	4cc#\	-a	.	8A/L	.	8e\L	.	4r	.	4r	.
.	.	.	.	16cc#/	.	16ee\	.	.	.	.	.	.	.	.	.	.	.	.	.	.	.	.	.	.	.	.	.
8A\J	.	8a\J	.	16e/	.	16cc#\	.	.	.	.	.	.	.	.	.	.	.	.	.	8A/J	.	8e\J	.	.	.	.	.
.	.	.	.	16cc#/JJ	.	16ee\JJ	.	.	.	.	.	.	.	.	.	.	.	.	.	.	.	.	.	.	.	.	.
!	!	!	!	!LO:LB:g=original	!	!	!	!	!	!	!	!	!	!	!	!	!	!	!	!	!	!	!	!	!	!	!
=14	=14	=14	=14	=14	=14	=14	=14	=14	=14	=14	=14	=14	=14	=14	=14	=14	=14	=14	=14	=14	=14	=14	=14	=14	=14	=14	=14
*	*	*	*	*	*	*	*	*	*ij	*	*	*ij	*	*	*ij	*	*	*ij	*	*	*	*	*	*	*	*	*
!LO:SIC:v:s=8G#\L	!	!LO:SIC:v:s=8g#\L	!	!	!	!	!	!LO:SIC:v:s=2G#\	!	!	!	!	!	!	!	!	!	!	!	!	!	!	!	!	!	!	!
8G\L	.	8g\L	.	16e/LL	.	16dd\LL	.	2G\	glo-	.	2B\	glo-	.	2e\	glo-	.	2dd\	glo-	.	2e\	.	2e\	.	2dd\	.	2ee\	.
.	.	.	.	16b/	.	16ee\	.	.	.	.	.	.	.	.	.	.	.	.	.	.	.	.	.	.	.	.	.
!	!	!LO:SIC:v:s=8g#\	!	!	!	!	!	!	!	!	!	!	!	!	!	!	!	!	!	!	!	!	!	!	!	!	!
8B\	.	8g\	.	16e/	.	16dd\	.	.	.	.	.	.	.	.	.	.	.	.	.	.	.	.	.	.	.	.	.
.	.	.	.	16b/	.	16ee\	.	.	.	.	.	.	.	.	.	.	.	.	.	.	.	.	.	.	.	.	.
!	!	!LO:SIC:v:s=8g#\	!	!	!	!	!	!	!	!	!	!	!	!	!	!	!	!	!	!	!	!	!	!	!	!	!
8E\	.	8g\	.	16e/	.	16dd\	.	.	.	.	.	.	.	.	.	.	.	.	.	.	.	.	.	.	.	.	.
.	.	.	.	16b/	.	16ee\	.	.	.	.	.	.	.	.	.	.	.	.	.	.	.	.	.	.	.	.	.
!LO:SIC:v:s=8G#\J	!	!LO:SIC:v:s=8g#\J	!	!	!	!	!	!	!	!	!	!	!	!	!	!	!	!	!	!	!	!	!	!	!	!	!
8G\J	.	8g\J	.	16e/	.	16dd\	.	.	.	.	.	.	.	.	.	.	.	.	.	.	.	.	.	.	.	.	.
.	.	.	.	16b/JJ	.	16ee\JJ	.	.	.	.	.	.	.	.	.	.	.	.	.	.	.	.	.	.	.	.	.
8A\L	.	8a\L	.	16e/LL	.	16cc#\LL	.	4A\	-ri-	.	4A\	-ri-	.	4e\	-ri-	.	4cc#\	-ri-	.	4A/	.	4e\	.	4cc#\	.	4ee\	.
.	.	.	.	16cc#/	.	16ee\	.	.	.	.	.	.	.	.	.	.	.	.	.	.	.	.	.	.	.	.	.
8c#\	.	8a\	.	16e/	.	16cc#\	.	.	.	.	.	.	.	.	.	.	.	.	.	.	.	.	.	.	.	.	.
.	.	.	.	16cc#/	.	16ee\	.	.	.	.	.	.	.	.	.	.	.	.	.	.	.	.	.	.	.	.	.
8E\	.	8a\	.	16e/	.	16cc#\	.	4A\	-a	.	4A\	-a	.	4e\	-a	.	4cc#\	-a	.	4r	.	4r	.	4r	.	4r	.
*	*	*	*	*	*	*	*	*	*Xij	*	*	*Xij	*	*	*Xij	*	*	*Xij	*	*	*	*	*	*	*	*	*
.	.	.	.	16cc#/	.	16ee\	.	.	.	.	.	.	.	.	.	.	.	.	.	.	.	.	.	.	.	.	.
8A\J	.	8a\J	.	16e/	.	16cc#\	.	.	.	.	.	.	.	.	.	.	.	.	.	.	.	.	.	.	.	.	.
.	.	.	.	16cc#/JJ	.	16ee\JJ	.	.	.	.	.	.	.	.	.	.	.	.	.	.	.	.	.	.	.	.	.
!	!	!	!	!	!	!LO:LB:g=original	!	!	!	!	!	!	!	!	!	!	!LO:LB:g=original	!	!	!	!	!	!	!	!	!	!
=15	=15	=15	=15	=15	=15	=15	=15	=15	=15	=15	=15	=15	=15	=15	=15	=15	=15	=15	=15	=15	=15	=15	=15	=15	=15	=15	=15
*tremolo	*	*	*	*	*	*	*	*	*	*	*	*	*	*	*	*	*	*	*	*	*	*	*	*	*	*	*
8D\L	.	8f#\L	.	16b\LL	.	16b\LL	.	(2D\	tu-	.	(2A\	tu-	.	(2f#\	tu-	.	1b	tu-	.	2d\	.	2f#\	.	1b	.	2.aa\	.
.	.	.	.	16b\	.	16aa\	.	.	.	.	.	.	.	.	.	.	.	.	.	.	.	.	.	.	.	.	.
8D\	.	8f#\	.	16b\	.	16b\	.	.	.	.	.	.	.	.	.	.	.	.	.	.	.	.	.	.	.	.	.
.	.	.	.	16b\	.	16aa\	.	.	.	.	.	.	.	.	.	.	.	.	.	.	.	.	.	.	.	.	.
8D\	.	8f#\	.	16b\	.	16b\	.	.	.	.	.	.	.	.	.	.	.	.	.	.	.	.	.	.	.	.	.
.	.	.	.	16b\	.	16aa\	.	.	.	.	.	.	.	.	.	.	.	.	.	.	.	.	.	.	.	.	.
8D\J	.	8f#\J	.	16b\	.	16b\	.	.	.	.	.	.	.	.	.	.	.	.	.	.	.	.	.	.	.	.	.
.	.	.	.	16b\JJ	.	16aa\JJ	.	.	.	.	.	.	.	.	.	.	.	.	.	.	.	.	.	.	.	.	.
*	*	*	*	*	*	*Xtremolo	*	*	*	*	*	*	*	*	*	*	*	*	*	*	*	*	*	*	*	*	*
!	!	!	!	!	!	!	!	!	!LO:MO:mod=.	!	!	!	!	!	!	!	!	!	!	!	!	!	!	!	!	!	!
8E\L	.	8e\L	.	16b\LL	.	16b\LL	.	2E^\)	-[[a]]-	.	2G#X/)	.	.	2e\)	.	.	.	.	.	2e\	.	2e\	.	.	.	.	.
.	.	.	.	16b\	.	16aa\	.	.	.	.	.	.	.	.	.	.	.	.	.	.	.	.	.	.	.	.	.
8E\	.	8e\	.	16b\	.	16b\	.	.	.	.	.	.	.	.	.	.	.	.	.	.	.	.	.	.	.	.	.
.	.	.	.	16b\	.	16aa\JJ	.	.	.	.	.	.	.	.	.	.	.	.	.	.	.	.	.	.	.	.	.
8E\	.	8e\	.	16b\	.	16b\LL	.	.	.	.	.	.	.	.	.	.	.	.	.	.	.	.	.	.	.	4gg#X\	.
.	.	.	.	16b\	.	16gg#X\	.	.	.	.	.	.	.	.	.	.	.	.	.	.	.	.	.	.	.	.	.
8E\J	.	8e\J	.	16b\	.	16b\	.	.	.	.	.	.	.	.	.	.	.	.	.	.	.	.	.	.	.	.	.
.	.	.	.	16b\JJ	.	16gg#\JJ	.	.	.	.	.	.	.	.	.	.	.	.	.	.	.	.	.	.	.	.	.
*Xtremolo	*	*	*	*	*	*	*	*	*	*	*	*	*	*	*	*	*	*	*	*	*	*	*	*	*	*	*
=16	=16	=16	=16	=16	=16	=16	=16	=16	=16	=16	=16	=16	=16	=16	=16	=16	=16	=16	=16	=16	=16	=16	=16	=16	=16	=16	=16
!	!	!	!	!LO:TX:t=P:problem=mixed beam	!	!LO:TX:t=P:problem=mixed beam	!	!	!LO:MO:mod=-a.	!	!	!LO:MO:mod=-a.	!	!	!LO:MO:mod=-a.	!	!	!LO:MO:mod=-a.	!	!	!	!	!	!	!	!	!
4A\	.	8a\L	.	16e/LL	.	16aa\LL	.	4A\	-a	.	4A\	-a	.	4e\	-a	.	4cc#\	-a	.	4A/	.	4e\	.	4cc#\	.	4aa\	.
.	.	.	.	16cc#\	.	16a/	.	.	.	.	.	.	.	.	.	.	.	.	.	.	.	.	.	.	.	.	.
.	.	8a\	.	16e/	.	16b/	.	.	.	.	.	.	.	.	.	.	.	.	.	.	.	.	.	.	.	.	.
.	.	.	.	16cc#\	.	16cc#/JJ	.	.	.	.	.	.	.	.	.	.	.	.	.	.	.	.	.	.	.	.	.
!	!	!	!	!	!	!	!	!	!LO:MO:mod=Ho-	!	!	!LO:MO:mod=Ho-	!	!	!LO:MO:mod=Ho-	!	!	!LO:MO:mod=Ho-	!	!	!	!	!	!	!	!	!
4E\	.	8a\	.	16e/	.	16dd\LL	.	4A\	O-	.	4A\	Ple-	.	4e\	o-	.	4cc#\	O-	.	4A/	.	4e\	.	4cc#\	.	4aa\	.
.	.	.	.	16cc#\	.	16ee\	.	.	.	.	.	.	.	.	.	.	.	.	.	.	.	.	.	.	.	.	.
.	.	8a\J	.	16e/	.	16ff#\	.	.	.	.	.	.	.	.	.	.	.	.	.	.	.	.	.	.	.	.	.
.	.	.	.	16cc#\JJ	.	16gg#X\JJ	.	.	.	.	.	.	.	.	.	.	.	.	.	.	.	.	.	.	.	.	.
!	!	!	!	!LO:TX:t=P:problem=mixed beam	!	!	!	!	!	!	!	!LO:MO:mod=-san-	!	!	!	!	!	!	!	!	!	!	!	!	!	!	!
4C#\	.	8a\L	.	16e/LL	.	8aa\L	.	4A\	-san-	.	4A\	-ni	.	4e\	-san-	.	4cc#\	-ſan-	.	4A/	.	4e\	.	4cc#\	.	4aa\	.
.	.	.	.	16cc#\	.	.	.	.	.	.	.	.	.	.	.	.	.	.	.	.	.	.	.	.	.	.	.
.	.	8a\	.	16e/	.	8a\	.	.	.	.	.	.	.	.	.	.	.	.	.	.	.	.	.	.	.	.	.
.	.	.	.	16cc#\	.	.	.	.	.	.	.	.	.	.	.	.	.	.	.	.	.	.	.	.	.	.	.
!	!	!	!	!	!	!	!	!	!	!	!	!LO:MO:mod=-na	!	!	!	!	!	!	!	!	!	!	!	!	!	!	!
4AA\	.	8a\	.	16e/	.	8cc#\	.	4A\	-na	.	4c#\	sunt	.	4a\	-na	.	4cc#\	-na	.	4r	.	4r	.	4ryy	.	4r	.
.	.	.	.	16cc#\	.	.	.	.	.	.	.	.	.	.	.	.	.	.	.	.	.	.	.	.	.	.	.
.	.	8a\J	.	16e/	.	8ee\J	.	.	.	.	.	.	.	.	.	.	.	.	.	.	.	.	.	.	.	.	.
.	.	.	.	16cc#\JJ	.	.	.	.	.	.	.	.	.	.	.	.	.	.	.	.	.	.	.	.	.	.	.
*	*	*Xtremolo	*	*	*	*	*	*	*	*	*	*	*	*	*	*	*	*	*	*	*	*	*	*	*	*	*
!	!	!LO:LB:g=original	!	!	!	!	!	!LO:LB:g=original	!	!	!	!	!	!	!	!	!	!	!	!LO:LB:g=original	!	!LO:LB:g=original	!	!LO:LB:g=original	!	!	!
=17	=17	=17	=17	=17	=17	=17	=17	=17	=17	=17	=17	=17	=17	=17	=17	=17	=17	=17	=17	=17	=17	=17	=17	=17	=17	=17	=17
!	!	!	!	!	!	!LO:SIC:s=4gg 4a\	!	!	!	!	!	!LO:MO:mod=in	!	!	!	!	!	!	!	!	!	!	!	!	!	!LO:SIC:s=1gg	!
8AA/L	.	8A\L	.	16e/LL	.	4ggn 4a\	.	2A\	in	.	2c#\	Cae-	.	2a\	in	.	2ee\	in	.	4A/	.	4e\	.	1ee	.	1ggn	.
.	.	.	.	16cc#/	.	.	.	.	.	.	.	.	.	.	.	.	.	.	.	.	.	.	.	.	.	.	.
16BB/L	.	16B\L	.	16e/	.	.	.	.	.	.	.	.	.	.	.	.	.	.	.	.	.	.	.	.	.	.	.
16C#/JJ	.	16c#\JJ	.	16cc#/	.	.	.	.	.	.	.	.	.	.	.	.	.	.	.	.	.	.	.	.	.	.	.
16D\LL	.	16d\LL	.	16e/	.	4gg 4a\	.	.	.	.	.	.	.	.	.	.	.	.	.	8A/L	.	8e\L	.	.	.	.	.
16E\	.	16e\	.	16cc#/	.	.	.	.	.	.	.	.	.	.	.	.	.	.	.	.	.	.	.	.	.	.	.
16F#\	.	16f#\	.	16e/	.	.	.	.	.	.	.	.	.	.	.	.	.	.	.	8A/J	.	8e\J	.	.	.	.	.
16G\JJ	.	16g\JJ	.	16cc#/JJ	.	.	.	.	.	.	.	.	.	.	.	.	.	.	.	.	.	.	.	.	.	.	.
!	!	!	!	!	!	!	!	!	!	!	!	!LO:MO:mod=ex-	!	!	!	!	!	!	!	!	!	!	!	!	!	!	!
8A\L	.	8a\L	.	16e/LL	.	4gg 4a\	.	2A\	ex-	.	2c#\	-li	.	2a\	ex-	.	2ee\	ex-	.	4A/	.	4e\	.	.	.	.	.
.	.	.	.	16cc#/	.	.	.	.	.	.	.	.	.	.	.	.	.	.	.	.	.	.	.	.	.	.	.
8E\	.	8e\	.	16e/	.	.	.	.	.	.	.	.	.	.	.	.	.	.	.	.	.	.	.	.	.	.	.
.	.	.	.	16cc#/	.	.	.	.	.	.	.	.	.	.	.	.	.	.	.	.	.	.	.	.	.	.	.
8C#\	.	8c#\	.	16e/	.	4r	.	.	.	.	.	.	.	.	.	.	.	.	.	4A/	.	4e\	.	.	.	.	.
.	.	.	.	16cc#/	.	.	.	.	.	.	.	.	.	.	.	.	.	.	.	.	.	.	.	.	.	.	.
8E\J	.	8e\J	.	16e/	.	.	.	.	.	.	.	.	.	.	.	.	.	.	.	.	.	.	.	.	.	.	.
.	.	.	.	16cc#/JJ	.	.	.	.	.	.	.	.	.	.	.	.	.	.	.	.	.	.	.	.	.	.	.
!	!	!	!	!	!	!	!	!	!	!	!	!	!	!LO:LB:g=original	!	!	!	!	!	!	!	!	!	!	!	!	!
=18	=18	=18	=18	=18	=18	=18	=18	=18	=18	=18	=18	=18	=18	=18	=18	=18	=18	=18	=18	=18	=18	=18	=18	=18	=18	=18	=18
!	!	!	!	!	!	!	!	!	!	!	!	!LO:MO:mod=-cel-	!	!	!	!	!	!	!	!	!	!	!	!	!	!	!
4A\	.	8c#\L	.	16e/LL	.	16gg\LL	.	1A	-cel-	.	1c#	et	.	1g	-cel-	.	1ee	-cel-	.	4A/	.	4e\	.	1ee	.	1gg	.
.	.	.	.	16cc#/	.	16a\	.	.	.	.	.	.	.	.	.	.	.	.	.	.	.	.	.	.	.	.	.
.	.	8a\	.	16e/	.	16b\	.	.	.	.	.	.	.	.	.	.	.	.	.	.	.	.	.	.	.	.	.
.	.	.	.	16cc#/	.	16cc#\JJ	.	.	.	.	.	.	.	.	.	.	.	.	.	.	.	.	.	.	.	.	.
!	!	!	!	!	!	!LO:LB:g=original	!	!	!	!	!	!	!	!	!	!	!	!	!	!	!	!	!	!	!	!	!
4E\	.	8a\	.	16e/	.	16dd\LL	.	.	.	.	.	.	.	.	.	.	.	.	.	8A/L	.	8e\L	.	.	.	.	.
.	.	.	.	16cc#/	.	16ee\	.	.	.	.	.	.	.	.	.	.	.	.	.	.	.	.	.	.	.	.	.
.	.	8a\J	.	16e/	.	16ff#\	.	.	.	.	.	.	.	.	.	.	.	.	.	8A/J	.	8e\J	.	.	.	.	.
.	.	.	.	16cc#/JJ	.	16dd\JJ	.	.	.	.	.	.	.	.	.	.	.	.	.	.	.	.	.	.	.	.	.
*	*	*tremolo	*	*	*	*	*	*	*	*	*	*	*	*	*	*	*	*	*	*	*	*	*	*	*	*	*
4C#\	.	8a\L	.	16e/LL	.	8gg\L	.	.	.	.	.	.	.	.	.	.	.	.	.	4A/	.	4e\	.	.	.	.	.
.	.	.	.	16cc#/	.	.	.	.	.	.	.	.	.	.	.	.	.	.	.	.	.	.	.	.	.	.	.
.	.	8a\	.	16e/	.	8a\	.	.	.	.	.	.	.	.	.	.	.	.	.	.	.	.	.	.	.	.	.
.	.	.	.	16cc#/	.	.	.	.	.	.	.	.	.	.	.	.	.	.	.	.	.	.	.	.	.	.	.
4AA\	.	8a\	.	16e/	.	8ee\	.	.	.	.	.	.	.	.	.	.	.	.	.	4r	.	4r	.	.	.	.	.
.	.	.	.	16cc#/	.	.	.	.	.	.	.	.	.	.	.	.	.	.	.	.	.	.	.	.	.	.	.
.	.	8a\J	.	16e/	.	8gg\J	.	.	.	.	.	.	.	.	.	.	.	.	.	.	.	.	.	.	.	.	.
.	.	.	.	16cc#/JJ	.	.	.	.	.	.	.	.	.	.	.	.	.	.	.	.	.	.	.	.	.	.	.
*	*	*Xtremolo	*	*	*	*	*	*	*	*	*	*	*	*	*	*	*	*	*	*	*	*	*	*	*	*	*
=19	=19	=19	=19	=19	=19	=19	=19	=19	=19	=19	=19	=19	=19	=19	=19	=19	=19	=19	=19	=19	=19	=19	=19	=19	=19	=19	=19
!	!	!	!	!	!	!	!	!	!LO:MO:mod=-sis,	!	!LO:SIC:s=4d\	!LO:MO:mod=-sis,	!	!	!LO:MO:mod=-sis,	!	!	!LO:MO:mod=-sis,	!	!	!	!	!	!	!	!	!
8D\L	.	8d\L	.	16f#/LL	.	4ff# 4a 4d\	.	4d\	-sis	.	(4d\	ter-	.	4f#\	-siſ	.	4dd\	-siſ	.	4d\	.	4f#\	.	1dd	.	1ff#	.
.	.	.	.	16a/	.	.	.	.	.	.	.	.	.	.	.	.	.	.	.	.	.	.	.	.	.	.	.
16E\L	.	16e\L	.	16f#/	.	.	.	.	.	.	.	.	.	.	.	.	.	.	.	.	.	.	.	.	.	.	.
16F#\JJ	.	16f#\JJ	.	16a/	.	.	.	.	.	.	.	.	.	.	.	.	.	.	.	.	.	.	.	.	.	.	.
!	!	!	!	!	!	!	!	!	!LO:MO:mod=ho-	!	!LO:SIC:s=4A\	!LO:MO:null:mod=ho-	!	!	!LO:MO:mod=ho-	!	!	!LO:MO:mod=ho-	!	!	!	!	!	!	!	!	!
16G\LL	.	16g\LL	.	16f#/	.	4ff# 4a 4d\	.	4A\	o-	.	4A\)	.	.	4f#\	o-	.	4dd\	o-	.	8d\L	.	8f#\L	.	.	.	.	.
16A\	.	16a\	.	16a/	.	.	.	.	.	.	.	.	.	.	.	.	.	.	.	.	.	.	.	.	.	.	.
16B\	.	16b\	.	16f#/	.	.	.	.	.	.	.	.	.	.	.	.	.	.	.	8d\J	.	8f#\J	.	.	.	.	.
16c#\JJ	.	16cc#\JJ	.	16a/JJ	.	.	.	.	.	.	.	.	.	.	.	.	.	.	.	.	.	.	.	.	.	.	.
!	!	!	!	!	!	!	!	!	!	!	!	!LO:MO:mod=-san-	!	!	!	!	!	!	!	!	!	!	!	!	!	!	!
8d\L	.	8dd\L	.	16f#/LL	.	4ff# 4a 4d\	.	4F#\	-san-	.	4A\	-ra	.	4f#\	-san-	.	4dd\	-san-	.	4d\	.	4f#\	.	.	.	.	.
.	.	.	.	16a/	.	.	.	.	.	.	.	.	.	.	.	.	.	.	.	.	.	.	.	.	.	.	.
8A\	.	8a\	.	16f#/	.	.	.	.	.	.	.	.	.	.	.	.	.	.	.	.	.	.	.	.	.	.	.
.	.	.	.	16a/	.	.	.	.	.	.	.	.	.	.	.	.	.	.	.	.	.	.	.	.	.	.	.
!	!	!	!	!	!	!	!	!	!	!	!	!LO:MO:mod=-na	!	!	!	!	!	!	!	!	!	!	!	!	!	!	!
8F#\	.	8f#\	.	16f#/	.	4r	.	4D\	-na	.	4A\	O-	.	4f#\	-na	.	4dd\	-na	.	4r	.	4r	.	.	.	.	.
.	.	.	.	16a/	.	.	.	.	.	.	.	.	.	.	.	.	.	.	.	.	.	.	.	.	.	.	.
8D\J	.	8d\J	.	16f#/	.	.	.	.	.	.	.	.	.	.	.	.	.	.	.	.	.	.	.	.	.	.	.
.	.	.	.	16a/JJ	.	.	.	.	.	.	.	.	.	.	.	.	.	.	.	.	.	.	.	.	.	.	.
*	*	*	*	*Xtremolo	*	*	*	*	*	*	*	*	*	*	*	*	*	*	*	*	*	*	*	*	*	*	*
!LO:LB:g=original	!	!	!	!	!	!	!	!	!	!	!	!	!	!	!	!	!	!	!	!	!	!	!	!	!	!	!
=20	=20	=20	=20	=20	=20	=20	=20	=20	=20	=20	=20	=20	=20	=20	=20	=20	=20	=20	=20	=20	=20	=20	=20	=20	=20	=20	=20
!	!	!	!	!	!	!	!	!	!	!	!	!	!	!	!	!	!	!	!LO:DY:t= :mod=%s	!	!	!	!	!	!	!	!
!	!	!	!	!	!	!	!	!	!	!	!	!	!	!	!	!	!	!	!LO:MO:mod=!LO&colon;DY&colon;ed=brack	!	!	!	!	!	!	!	!
!	!LO:DY:b:t=p.	!	!LO:DY:a	!	!LO:DY:b:t=p&colon;	!	!	!	!	!LO:DY:a:rj:t=p&colon;	!	!LO:MO:mod=in	!LO:DY:a:t=p&colon;	!	!	!LO:DY:a:rj::t=p&colon;	!	!	!null	!LO:TX:a:t=2.:mod=	!	!LO:TX:a:t=2.:mod=	!	!	!	!LO:TX:a:t=2.:mod=	!
4C#/	p	2e\	p	8a/	p	8r	.	2C#\	in	p	2A\	-san-	p	2e\	in	p	2a\	in	p	0r	.	0r	.	0r	.	0r	.
!	!	!	!	!	!	!	!LO:DY:b:rj:t=pia	!	!	!	!	!	!	!	!	!	!	!	!	!	!	!	!	!	!	!	!
.	.	.	.	4a/	.	8a\L	p	.	.	.	.	.	.	.	.	.	.	.	.	.	.	.	.	.	.	.	.
4r	.	.	.	.	.	8ee\	.	.	.	.	.	.	.	.	.	.	.	.	.	.	.	.	.	.	.	.	.
.	.	.	.	4a/	.	8gg\J	.	.	.	.	.	.	.	.	.	.	.	.	.	.	.	.	.	.	.	.	.
!	!	!	!	!	!	!	!	!	!	!	!	!LO:MO:mod=ex-	!	!	!	!	!	!	!	!	!	!	!	!	!	!	!
4D/	.	2f#\	.	.	.	8r	.	2D\	ex-	.	2A\	-na	.	2f#\	ex-	.	2a\	ex-	.	.	.	.	.	.	.	.	.
.	.	.	.	4a/	.	8ff#\L	.	.	.	.	.	.	.	.	.	.	.	.	.	.	.	.	.	.	.	.	.
4r	.	.	.	.	.	8ee\	.	.	.	.	.	.	.	.	.	.	.	.	.	.	.	.	.	.	.	.	.
.	.	.	.	8a/	.	8dd\J	.	.	.	.	.	.	.	.	.	.	.	.	.	.	.	.	.	.	.	.	.
!	!	!	!	!LO:LB:g=original	!	!	!	!	!	!	!	!	!	!	!	!	!	!	!	!	!	!	!	!	!	!	!
=21	=21	=21	=21	=21	=21	=21	=21	=21	=21	=21	=21	=21	=21	=21	=21	=21	=21	=21	=21	=21	=21	=21	=21	=21	=21	=21	=21
!	!	!	!	!	!	!	!	!	!	!	!	!LO:MO:mod=-cel-	!	!	!	!	!	!	!	!	!	!	!	!	!	!	!
4E\	.	2g\	.	8a/	.	8r	.	2E\	-cel-	.	2A\	in	.	2g\	-cel-	.	2a\	-cel-	.	.	.	.	.	.	.	.	.
.	.	.	.	4a/	.	8cc#\L	.	.	.	.	.	.	.	.	.	.	.	.	.	.	.	.	.	.	.	.	.
4r	.	.	.	.	.	8dd\	.	.	.	.	.	.	.	.	.	.	.	.	.	.	.	.	.	.	.	.	.
.	.	.	.	4a/	.	8ee\J	.	.	.	.	.	.	.	.	.	.	.	.	.	.	.	.	.	.	.	.	.
!	!	!	!	!	!	!	!	!	!LO:MO:mod=-sis,	!	!	!LO:MO:mod=-sis,	!	!	!LO:MO:mod=-sis,	!	!	!LO:MO:mod=-sis,	!	!	!	!	!	!	!	!	!
4F#\	.	2a\	.	.	.	8r	.	2F#\	-sis	.	2A\	ex-	.	2a\	-siſ	.	2a\	-sis	.	.	.	.	.	.	.	.	.
.	.	.	.	4a/	.	8dd\L	.	.	.	.	.	.	.	.	.	.	.	.	.	.	.	.	.	.	.	.	.
4r	.	.	.	.	.	8ff#\	.	.	.	.	.	.	.	.	.	.	.	.	.	.	.	.	.	.	.	.	.
.	.	.	.	8a/	.	8dd\J	.	.	.	.	.	.	.	.	.	.	.	.	.	.	.	.	.	.	.	.	.
!	!	!	!	!	!	!LO:LB:g=original	!	!	!	!	!	!	!	!	!	!	!	!	!	!	!	!	!	!	!	!	!
=22	=22	=22	=22	=22	=22	=22	=22	=22	=22	=22	=22	=22	=22	=22	=22	=22	=22	=22	=22	=22	=22	=22	=22	=22	=22	=22	=22
*	*	*	*	*	*	*	*	*	*ij	*	*	*	*	*	*ij	*	*	*	*	*	*	*	*	*	*	*	*
!	!	!	!	!	!	!	!	!	!	!	!	!	!	!	!	!	!	!	!	!	!LO:DY:t= :mod=%s	!	!	!	!LO:DY:t= :mod=%s	!	!
!	!	!	!	!	!	!	!	!	!	!	!	!	!	!	!	!	!	!	!	!	!LO:MO:mod=!LO&colon;DY&colon;ed=brack	!	!	!	!LO:MO:mod=!LO&colon;DY&colon;ed=brack	!	!
!	!	!LO:TX:t=P:problem=takty 22-23 zapisane powtórką	!LO:DY:a	!	!	!LO:TX:t=P:problem=takty 22-23 zapisane powtórką	!	!	!	!	!	!LO:MO:mod=in	!	!	!	!	!	!	!	!	!null	!	!LO:DY:a:t=p&colon;	!	!null	!	!LO:DY:b:t=p.
!	!	!LO:MO:mod=2e\	!LO:MO:mod=.	!	!	!LO:MO:mod=8r	!	!	!	!	!	!	!	!	!	!	!	!	!	!	!	!	!	!	!	!	!
4C#/	.	2e\yy	p	8a/	.	8ryy	.	2C#/	in	.	2A\	-cel-	.	2e\	in	.	2a\	in	.	2A/	p	2e\	p	1a	p	1aa	p
!	!	!	!	!	!	!LO:MO:mod=8a\L	!LO:DY:b:rj:t=pia	!	!	!	!	!	!	!	!	!	!	!	!	!	!	!	!	!	!	!	!
.	.	.	.	4a/	.	8a\Lyy	py	.	.	.	.	.	.	.	.	.	.	.	.	.	.	.	.	.	.	.	.
!	!	!	!	!	!	!LO:MO:mod=8ee\	!	!	!	!	!	!	!	!	!	!	!	!	!	!	!	!	!	!	!	!	!
4r	.	.	.	.	.	8ee\yy	.	.	.	.	.	.	.	.	.	.	.	.	.	.	.	.	.	.	.	.	.
!	!	!	!	!	!	!LO:MO:mod=8gg\J	!	!	!	!	!	!	!	!	!	!	!	!	!	!	!	!	!	!	!	!	!
.	.	.	.	4a/	.	8gg\Jyy	.	.	.	.	.	.	.	.	.	.	.	.	.	.	.	.	.	.	.	.	.
!	!	!LO:MO:mod=2f#\	!	!	!	!LO:MO:mod=8r	!	!	!	!	!	!LO:MO:mod=ex-	!	!	!	!	!	!	!	!	!	!	!	!	!	!	!
4D/	.	2f#\yy	.	.	.	8ryy	.	2D/	ex-	.	2A\	-siſ	.	2f#\	ex-	.	2a\	ex-	.	2d\	.	2f#\	.	.	.	.	.
!	!	!	!	!	!	!LO:MO:mod=8ff#\L	!	!	!	!	!	!	!	!	!	!	!	!	!	!	!	!	!	!	!	!	!
.	.	.	.	8a/	.	8ff#\Lyy	.	.	.	.	.	.	.	.	.	.	.	.	.	.	.	.	.	.	.	.	.
!	!	!	!	!	!	!LO:MO:mod=8ee\	!	!	!	!	!	!	!	!	!	!	!	!	!	!	!	!	!	!	!	!	!
4r	.	.	.	8a/L	.	8ee\yy	.	.	.	.	.	.	.	.	.	.	.	.	.	.	.	.	.	.	.	.	.
!	!	!	!	!	!	!LO:MO:mod=8dd\J	!	!	!	!	!	!	!	!	!	!	!	!	!	!	!	!	!	!	!	!	!
.	.	.	.	8a/J	.	8dd\Jyy	.	.	.	.	.	.	.	.	.	.	.	.	.	.	.	.	.	.	.	.	.
!	!	!	!	!	!	!	!	!	!	!	!LO:LB:g=original	!	!	!	!	!	!LO:LB:g=original	!	!	!	!	!	!	!	!	!	!
=23	=23	=23	=23	=23	=23	=23	=23	=23	=23	=23	=23	=23	=23	=23	=23	=23	=23	=23	=23	=23	=23	=23	=23	=23	=23	=23	=23
!	!	!LO:MO:mod=2g\	!	!	!	!LO:MO:mod=8r	!	!	!	!	!	!LO:MO:mod=-cel-	!	!	!	!	!	!	!	!	!	!	!	!	!	!	!
4E\	.	2g\yy	.	8a/	.	8ryy	.	2E\	-cel-	.	2A\	O-	.	2g\	-cel-	.	2a\	-cel-	.	2A/	.	2e\	.	1a	.	1aa	.
!	!	!	!	!	!	!LO:MO:mod=8cc#\L	!	!	!	!	!	!	!	!	!	!	!	!	!	!	!	!	!	!	!	!	!
.	.	.	.	4a/	.	8cc#\Lyy	.	.	.	.	.	.	.	.	.	.	.	.	.	.	.	.	.	.	.	.	.
!	!	!	!	!	!	!LO:MO:mod=8dd\	!	!	!	!	!	!	!	!	!	!	!	!	!	!	!	!	!	!	!	!	!
4r	.	.	.	.	.	8dd\yy	.	.	.	.	.	.	.	.	.	.	.	.	.	.	.	.	.	.	.	.	.
!	!	!	!	!	!	!LO:MO:mod=8ee\J	!	!	!	!	!	!	!	!	!	!	!	!	!	!	!	!	!	!	!	!	!
.	.	.	.	4a/	.	8ee\Jyy	.	.	.	.	.	.	.	.	.	.	.	.	.	.	.	.	.	.	.	.	.
!	!	!LO:MO:mod=2a\	!	!	!	!LO:MO:mod=8r	!	!	!LO:MO:mod=-sis,	!	!	!LO:MO:mod=-sis,	!	!	!LO:MO:mod=-sis,	!	!	!LO:MO:mod=-sis,	!	!	!	!	!	!	!	!	!
4F#\	.	2a\yy	.	.	.	8ryy	.	4F#\	-sis	.	4A\	-san-	.	4a\	-siſ	.	4a\	-siſ	.	2F#/	.	2d\	.	.	.	.	.
*	*	*	*	*	*	*	*	*	*Xij	*	*	*	*	*	*Xij	*	*	*	*	*	*	*	*	*	*	*	*
!	!	!	!	!	!	!LO:MO:mod=8dd\L	!	!	!	!	!	!	!	!	!	!	!	!	!	!	!	!	!	!	!	!	!
.	.	.	.	4a/	.	8dd\Lyy	.	.	.	.	.	.	.	.	.	.	.	.	.	.	.	.	.	.	.	.	.
!	!	!	!	!	!	!LO:MO:mod=8ff#\	!	!	!LO:MO:mod=ho-	!	!	!LO:MO:mod=o-LO:MO:mod=ho-	!	!	!LO:MO:mod=ho-	!	!	!LO:MO:mod=ho-	!	!	!	!	!	!	!	!	!
4D\	.	.	.	.	.	8ff#\yy	.	4d\	o-	.	4d\	-na	.	4a\	o-	.	4ff#\	o-	.	.	.	.	.	.	.	.	.
!	!	!	!	!	!	!LO:MO:mod=8dd\J	!	!	!	!	!	!	!	!	!	!	!	!	!	!	!	!	!	!	!	!	!
.	.	.	.	8a/	.	8dd\Jyy	.	.	.	.	.	.	.	.	.	.	.	.	.	.	.	.	.	.	.	.	.
!	!	!	!	!	!	!	!	!	!	!	!	!	!	!	!	!	!	!	!	!	!	!	!	!	!	!LO:LB:g=original	!
=24	=24	=24	=24	=24	=24	=24	=24	=24	=24	=24	=24	=24	=24	=24	=24	=24	=24	=24	=24	=24	=24	=24	=24	=24	=24	=24	=24
*	*	*tremolo	*	*tremolo	*	*tremolo	*	*	*	*	*	*	*	*	*	*	*	*	*	*	*	*	*	*	*	*	*
!	!	!	!	!	!	!	!LO:DY:t= :mod=%s	!	!	!	!	!	!	!	!	!	!	!	!	!	!LO:DY:t= :mod=%s	!	!	!	!	!	!
!LO:TX:t=P:problem=mixed beam	!	!	!	!	!	!	!LO:MO:mod=!LO&colon;DY&colon;ed=brack	!	!	!	!	!	!	!	!	!	!	!	!	!	!LO:MO:mod=!LO&colon;DY&colon;ed=brack	!	!	!	!	!	!
!LO:TX:i:a:t=Tutti:mod=	!	!	!LO:DY:a	!	!LO:DY:b:rj:t=for	!	!null	!	!	!LO:DY:a:rj:t=fo	!	!LO:MO:mod=-san-	!LO:DY:a:rj:t=f&colon;	!	!	!LO:DY:a:rj:t=for	!	!	!LO:DY:a:rj:t=for	!	!null	!	!LO:DY:a:t=for&colon;	!	!	!LO:SIC:s=2gg\	!
8C#/L	.	8c#\L	f	16e/LL	f	16a\LL	f	2c#\	-san-	f	2e\	in	f	2a\	-san-	f	2ee\	-ſan-	f	4A/	f	4e\	f	2ee\	.	2ggn\	.
.	.	.	.	16a/	.	16gg\	.	.	.	.	.	.	.	.	.	.	.	.	.	.	.	.	.	.	.	.	.
8c#\	.	8c#\	.	16e/	.	16a\	.	.	.	.	.	.	.	.	.	.	.	.	.	.	.	.	.	.	.	.	.
.	.	.	.	16a/	.	16gg\	.	.	.	.	.	.	.	.	.	.	.	.	.	.	.	.	.	.	.	.	.
8e\	.	8c#\	.	16e/	.	16a\	.	.	.	.	.	.	.	.	.	.	.	.	.	8A/L	.	8e\L	.	.	.	.	.
.	.	.	.	16a/	.	16gg\	.	.	.	.	.	.	.	.	.	.	.	.	.	.	.	.	.	.	.	.	.
8c#\J	.	8c#\J	.	16e/	.	16a\	.	.	.	.	.	.	.	.	.	.	.	.	.	8A/J	.	8e\J	.	.	.	.	.
.	.	.	.	16a/JJ	.	16gg\JJ	.	.	.	.	.	.	.	.	.	.	.	.	.	.	.	.	.	.	.	.	.
!	!	!	!	!	!	!	!	!	!	!	!	!LO:MO:mod=-na	!	!	!	!	!	!	!	!	!	!	!	!	!	!	!
8d\L	.	8d\L	.	16f#/LL	.	16a\LL	.	2d\	-na	.	2d\	ex-	.	2a\	-na	.	2ff#\	-na	.	4d\	.	4f#\	.	4dd\	.	4ff#\	.
.	.	.	.	16a/	.	16ff#\	.	.	.	.	.	.	.	.	.	.	.	.	.	.	.	.	.	.	.	.	.
8A\	.	8d\	.	16f#/	.	16a\	.	.	.	.	.	.	.	.	.	.	.	.	.	.	.	.	.	.	.	.	.
.	.	.	.	16a/	.	16ff#\	.	.	.	.	.	.	.	.	.	.	.	.	.	.	.	.	.	.	.	.	.
8F#\	.	8d\	.	16f#/	.	16a\	.	.	.	.	.	.	.	.	.	.	.	.	.	4d\	.	4f#\	.	4r	.	4r	.
.	.	.	.	16a/	.	16ff#\	.	.	.	.	.	.	.	.	.	.	.	.	.	.	.	.	.	.	.	.	.
8D\J	.	8d\J	.	16f#/	.	16a\	.	.	.	.	.	.	.	.	.	.	.	.	.	.	.	.	.	.	.	.	.
.	.	.	.	16a/JJ	.	16ff#\JJ	.	.	.	.	.	.	.	.	.	.	.	.	.	.	.	.	.	.	.	.	.
!	!	!	!	!	!	!	!	!LO:LB:g=original	!	!	!	!	!	!LO:LB:g=original	!	!	!	!	!	!	!	!	!	!	!	!	!
=25	=25	=25	=25	=25	=25	=25	=25	=25	=25	=25	=25	=25	=25	=25	=25	=25	=25	=25	=25	=25	=25	=25	=25	=25	=25	=25	=25
!LO:TX:t=P:problem=mixed beam	!	!	!	!	!	!	!	!	!	!	!LO:SIC:s=2e\	!LO:MO:mod=in	!	!	!	!	!	!	!	!	!	!	!	!	!	!	!
8C#/L	.	8c#\L	.	16e/LL	.	16a\LL	.	2c#\	in	.	(2e\	-cel-	.	2a\	in	.	2ee\	in	.	4A/	.	4e\	.	2ee\	.	2gg\	.
.	.	.	.	16a/	.	16gg\	.	.	.	.	.	.	.	.	.	.	.	.	.	.	.	.	.	.	.	.	.
8c#\	.	8c#\	.	16e/	.	16a\	.	.	.	.	.	.	.	.	.	.	.	.	.	.	.	.	.	.	.	.	.
.	.	.	.	16a/	.	16gg\	.	.	.	.	.	.	.	.	.	.	.	.	.	.	.	.	.	.	.	.	.
8e\	.	8c#\	.	16e/	.	16a\	.	.	.	.	.	.	.	.	.	.	.	.	.	8A/L	.	8e\L	.	.	.	.	.
.	.	.	.	16a/	.	16gg\	.	.	.	.	.	.	.	.	.	.	.	.	.	.	.	.	.	.	.	.	.
8c#\J	.	8c#\J	.	16e/	.	16a\	.	.	.	.	.	.	.	.	.	.	.	.	.	8A/J	.	8e\J	.	.	.	.	.
.	.	.	.	16a/JJ	.	16gg\JJ	.	.	.	.	.	.	.	.	.	.	.	.	.	.	.	.	.	.	.	.	.
*	*	*	*	*	*	*Xtremolo	*	*	*	*	*	*	*	*	*	*	*	*	*	*	*	*	*	*	*	*	*
!	!	!	!	!	!	!	!	!	!	!	!LO:SIC:s=2d\	!LO:MO:null:mod=[ex-	!	!	!	!	!	!	!	!	!	!	!	!	!	!	!
8d\L	.	8d\L	.	16f#/LL	.	16a\LL	.	2d\	ex-	.	2d\)	.	.	2a\	ex-	.	2ff#\	ex-	.	4d\	.	4f#\	.	4dd\	.	4ff#\	.
.	.	.	.	16dd/	.	16ff#\	.	.	.	.	.	.	.	.	.	.	.	.	.	.	.	.	.	.	.	.	.
8A\	.	8d\	.	16f#/	.	16a\	.	.	.	.	.	.	.	.	.	.	.	.	.	.	.	.	.	.	.	.	.
.	.	.	.	16dd/	.	16ff#\JJ	.	.	.	.	.	.	.	.	.	.	.	.	.	.	.	.	.	.	.	.	.
8F#\	.	8d\	.	16f#/	.	16ff#\LL	.	.	.	.	.	.	.	.	.	.	.	.	.	4d\	.	4f#\	.	4r	.	4r	.
.	.	.	.	16dd/	.	16ddd\	.	.	.	.	.	.	.	.	.	.	.	.	.	.	.	.	.	.	.	.	.
8D\J	.	8d\J	.	16f#/	.	16ff#\	.	.	.	.	.	.	.	.	.	.	.	.	.	.	.	.	.	.	.	.	.
.	.	.	.	16dd/JJ	.	16ddd\JJ	.	.	.	.	.	.	.	.	.	.	.	.	.	.	.	.	.	.	.	.	.
=26	=26	=26	=26	=26	=26	=26	=26	=26	=26	=26	=26	=26	=26	=26	=26	=26	=26	=26	=26	=26	=26	=26	=26	=26	=26	=26	=26
*tremolo	*	*	*	*	*	*tremolo	*	*	*	*	*	*	*	*	*	*	*	*	*	*	*	*	*	*	*	*	*
!	!	!	!	!	!	!	!	!	!	!	!	!LO:MO:null:mod=-cel]-	!	!LO:SIC:s=(2b\	!	!	!	!	!	!	!	!	!	!	!	!	!
8G\L	.	8B/L	.	16dd\LL	.	16ee\LL	.	(2G\	-cel-	.	(2d\	.	.	2b\	-cel-	.	1ee	-cel-	.	4e\	.	4e\	.	2.dd\	.	2ee\	.
.	.	.	.	16ee\	.	16ddd\	.	.	.	.	.	.	.	.	.	.	.	.	.	.	.	.	.	.	.	.	.
8G\	.	8B/	.	16dd\	.	16ee\	.	.	.	.	.	.	.	.	.	.	.	.	.	.	.	.	.	.	.	.	.
.	.	.	.	16ee\	.	16ddd\	.	.	.	.	.	.	.	.	.	.	.	.	.	.	.	.	.	.	.	.	.
8G\	.	8B/	.	16dd\	.	16ee\	.	.	.	.	.	.	.	.	.	.	.	.	.	8e\L	.	8e\L	.	.	.	.	.
.	.	.	.	16ee\	.	16ddd\	.	.	.	.	.	.	.	.	.	.	.	.	.	.	.	.	.	.	.	.	.
8G\J	.	8B/J	.	16dd\	.	16ee\	.	.	.	.	.	.	.	.	.	.	.	.	.	8e\J	.	8e\J	.	.	.	.	.
.	.	.	.	16ee\JJ	.	16ddd\JJ	.	.	.	.	.	.	.	.	.	.	.	.	.	.	.	.	.	.	.	.	.
*	*	*	*	*	*	*Xtremolo	*	*	*	*	*	*	*	*	*	*	*	*	*	*	*	*	*	*	*	*	*
!	!	!	!	!	!	!	!	!	!	!	!	!	!	!LO:SIC:s=2a\)	!	!	!	!	!	!	!	!	!	!	!	!	!
8A\L	.	8A/L	.	16cc#\LL	.	16ee\LL	.	2A\)	.	.	2c#\)	.	.	2a\	.	.	.	.	.	4A/	.	4e\	.	.	.	2ee\	.
.	.	.	.	16ee\	.	16ddd\	.	.	.	.	.	.	.	.	.	.	.	.	.	.	.	.	.	.	.	.	.
8A\	.	8A/	.	16cc#\	.	16ee\	.	.	.	.	.	.	.	.	.	.	.	.	.	.	.	.	.	.	.	.	.
.	.	.	.	16ee\	.	16ddd\JJ	.	.	.	.	.	.	.	.	.	.	.	.	.	.	.	.	.	.	.	.	.
8A\	.	8A/	.	16cc#\	.	16ee\LL	.	.	.	.	.	.	.	.	.	.	.	.	.	4A/	.	4e\	.	4cc#\	.	.	.
.	.	.	.	16ee\	.	16ccc#\	.	.	.	.	.	.	.	.	.	.	.	.	.	.	.	.	.	.	.	.	.
8A\J	.	8A/J	.	16cc#\	.	16ee\	.	.	.	.	.	.	.	.	.	.	.	.	.	.	.	.	.	.	.	.	.
.	.	.	.	16ee\JJ	.	16ccc#\JJ	.	.	.	.	.	.	.	.	.	.	.	.	.	.	.	.	.	.	.	.	.
*Xtremolo	*	*Xtremolo	*	*Xtremolo	*	*	*	*	*	*	*	*	*	*	*	*	*	*	*	*	*	*	*	*	*	*	*
!	!	!	!	!	!	!LO:LB:g=original	!	!	!	!	!	!	!	!	!	!	!	!	!	!	!	!	!	!	!	!	!
=27	=27	=27	=27	=27	=27	=27	=27	=27	=27	=27	=27	=27	=27	=27	=27	=27	=27	=27	=27	=27	=27	=27	=27	=27	=27	=27	=27
8D\L	.	8d\L	.	4ff# 4a 4d/	.	4ddd 4ff#\	.	4D\	-sis.	.	4d\	-siſ.	.	4a\	-siſ.	.	4ff#\	-siſ.	.	4d\	.	4f#\	.	4dd\	.	4ff#\	.
16E\L	.	16e\L	.	.	.	.	.	.	.	.	.	.	.	.	.	.	.	.	.	.	.	.	.	.	.	.	.
16F#\JJ	.	16f#\JJ	.	.	.	.	.	.	.	.	.	.	.	.	.	.	.	.	.	.	.	.	.	.	.	.	.
16G\LL	.	16g\LL	.	4ff# 4a 4d/	.	4ddd 4ff#\	.	4r	.	.	4r	.	.	4r	.	.	4r	.	.	4d\	.	4f#\	.	4dd\	.	4ff#\	.
16A\	.	16a\	.	.	.	.	.	.	.	.	.	.	.	.	.	.	.	.	.	.	.	.	.	.	.	.	.
16B\	.	16b\	.	.	.	.	.	.	.	.	.	.	.	.	.	.	.	.	.	.	.	.	.	.	.	.	.
16c#\JJ	.	16cc#\JJ	.	.	.	.	.	.	.	.	.	.	.	.	.	.	.	.	.	.	.	.	.	.	.	.	.
8d\L	.	8dd\L	.	4ff# 4a 4d/	.	4ddd 4ff#\	.	2r	.	.	2r	.	.	2r	.	.	2r	.	.	4d\	.	4f#\	.	4dd\	.	4ff#\	.
8A\	.	8a\	.	.	.	.	.	.	.	.	.	.	.	.	.	.	.	.	.	.	.	.	.	.	.	.	.
8F#\	.	8f#\	.	4r	.	4r	.	.	.	.	.	.	.	.	.	.	.	.	.	4r	.	4r	.	4r	.	4r	.
8A\J	.	8a\J	.	.	.	.	.	.	.	.	.	.	.	.	.	.	.	.	.	.	.	.	.	.	.	.	.
!	!	!	!	!LO:LB:g=original	!	!	!	!	!	!	!	!	!	!	!	!	!	!	!	!	!	!	!	!LO:LB:g=original	!	!	!
=28	=28	=28	=28	=28	=28	=28	=28	=28	=28	=28	=28	=28	=28	=28	=28	=28	=28	=28	=28	=28	=28	=28	=28	=28	=28	=28	=28
!	!	!	!	!	!	!	!	!LO:TX:a:t=1.:mod=	!	!	!	!	!	!	!	!	!	!	!	!	!	!	!	!	!	!	!
4D/	.	4dd\	.	4ff# 4a 4d/	.	4ddd 4ff#\	.	1r	.	.	1r	.	.	1r	.	.	1r	.	.	4F#/	.	4d\	.	4dd\	.	4ff#\	.
4D/	.	4d\	.	4ff# 4a 4d/	.	4ddd 4ff#\	.	.	.	.	.	.	.	.	.	.	.	.	.	4F#/	.	4d\	.	4dd\	.	4ff#\	.
4D/	.	4d\	.	4ff# 4a 4d/	.	4ddd 4ff#\	.	.	.	.	.	.	.	.	.	.	.	.	.	4F#/	.	4d\	.	4dd\	.	4ff#\	.
4r	.	4r	.	4r	.	4r	.	.	.	.	.	.	.	.	.	.	.	.	.	4r	.	4r	.	4r	.	4r	.
==	==	==	==	==	==	==	==	==	==	==	==	==	==	==	==	==	==	==	==	==	==	==	==	==	==	==	==
*-	*-	*-	*-	*-	*-	*-	*-	*-	*-	*-	*-	*-	*-	*-	*-	*-	*-	*-	*-	*-	*-	*-	*-	*-	*-	*-	*-
!!!system-decoration: [(g1)][(g2)][(g3)][(g4)]g5
!!!RDF**kern: | = vertical stroke
!!!filter-modern: sic -sq | shed -e "s/LO:DY:(a|b|rj)/LO:dy:$1/L" | shed -e "s/t=P:/T=P:/L" | autostem -r | tie -s | humtr -p | modori -m
!!!ENC: Andrzej Gręziak
!!!END: 2020-09-24
!!!EED: Kamil Watkowski
!!!EEV: 2022-02-11
!!!ENC-modern: Katarzyna Serwa
!!!END-modern: 2022-06-24
